**kern	**kern	**dynam
*part1	*part1	*part1
*staff2	*staff1	*
*I"Piano	*	*
*clefF4	*clefG2	*
*k[b-]	*k[b-]	*
=1	=1	=1
4GG	8r	.
.	8B-L 8d	.
4BB-	8r	.
.	8dJ 8g	.
=	=	=
*^	*	*
8r	4C	8r	.
*	*	*^	*
16GLL	.	16eLL	4B-	.
16FJJ	.	16dJJ	.	.
4E	8EL	8cL	.	.
.	8CJ	8cJ	8B-	.
*v	*v	*	*	*
*	*v	*v	*
=	=	=
4F	8r	.
.	8cL 8f 8a	.
4E	8r	.
.	8cJ 8g 8cc	.
=	=	=
4E-X	8r	.
.	8cL 8g	.
4D	8r	.
.	8B-J 8d 8g	.
=	=	=
4D	8dL 8b-	mp >
.	8d 8a	.
4DD	8d 8g 8dd	.
.	8dJ 8f#X 8cc	.
=	=	=
*	*^	*
4GG	4cc	8r	]
.	.	8dL 8f#X	.
4G	4b-	8r	.
.	.	8dJ 8g	.
*	*v	*v	*
=	=	=
2BB- 2B-	8r	p
.	8dL 8g	.
.	8d 8g	.
.	8dJ 8g	.
=	=	=
*-	*-	*-
!!!system-decoration: {(s1,s2)}
